X:1
T:Month of May, Brackley
M:6/8
L:1/8
A:Brackley
P:A(AB)6A
K:G
"A"[|\
D | G2G GFG | A2B c2d | e2d dcB | GFG A2D |\
G2G GFG | A2B c2d | e2e d2B | dcA G2 |]
"B"[|\
B | A2A A2B | cdc B2d | g2d g2d | B2c d2A |\
A2A A2B | cdc Bcd | g2d g2d | cBA G2 |]
